12/img/phone-icon.svg

<svg width="58" height="58" fill="none" xmlns="http://www.w3.org/2000/svg"><path fill="#E6E6E6" d="M0 0h58v58H0z"/><path d="M23.6 27.8c1.4 2.8 3.8 5.1 6.6 6.6l2.2-2.2c.3-.3.7-.4 1-.2 1.1.4 2.3.6 3.6.6.6 0 1 .4 1 1V37c0 .6-.4 1-1 1-9.4 0-17-7.6-17-17 0-.6.4-1 1-1h3.5c.6 0 1 .4 1 1 0 1.2.2 2.4.6 3.6.1.3 0 .7-.2 1l-2.3 2.2Z" fill="#010101"/></svg>

<svg width="58" height="58" viewBox="0 0 58 58" fill="none" xmlns="http://www.w3.org/2000/svg">
<rect width="58" height="58" fill="#E6E6E6"/>
<path d="M23.6 27.8C25 30.6 27.4 32.9 30.2 34.4L32.4 32.2C32.7 31.9 33.1 31.8 33.4 32C34.5 32.4 35.7 32.6 37 32.6C37.6 32.6 38 33 38 33.6V37C38 37.6 37.6 38 37 38C27.6 38 20 30.4 20 21C20 20.4 20.4 20 21 20H24.5C25.1 20 25.5 20.4 25.5 21C25.5 22.2 25.7 23.4 26.1 24.6C26.2 24.9 26.1 25.3 25.9 25.6L23.6 27.8Z" fill="#010101"/>
</svg>
